X: 1
T: Jack O'Connell's
M: 2/4
L: 1/8
R: polka
K: Gmaj
d2 Bd/B/|AG EG|DE GA|BA Bd|
d2 Bd/B/|AG EG|DG AG/A/|1BG G2:||2BG GA||
Bd dB/d/|gf ed|Bd dB/d/|gB AG/A/|
Bd dB/d/|gf ed|Bd A/B/c/A/|1BG GA:||2BG G2||
